lib/brands/logos/dribbble.svg

<svg xmlns="http://www.w3.org/2000/svg" fill="none" aria-hidden="true" viewBox="0 0 223 61"><g id="dribbble"><path id="Vector" fill="#444444" d="M71.1529 25.46C73.5275 25.46 75.4524 23.5344 75.4524 21.1592C75.4524 18.784 73.5275 16.8585 71.1529 16.8585C68.7782 16.8585 66.8533 18.784 66.8533 21.1592C66.8533 23.5344 68.7782 25.46 71.1529 25.46ZM213.048 40.1541C212.394 39.694 211.889 39.618 211.47 40.5112C204.248 56.1511 192.079 48.3467 193.289 49.0336C195.988 47.7986 203.087 42.1051 202.014 34.2439C201.362 29.4395 197.239 27.3084 192.862 28.0715C185.222 29.4033 182.411 37.6438 183.842 44.9399C184.092 46.1926 184.54 47.2262 184.986 48.2383C176.353 55.2592 172.924 41.953 172.535 40.3631C172.52 40.2782 179.202 34.7086 181.06 21.4368C183.008 7.52737 178.571 4.99499 174.033 5.07392C165.637 5.22025 163.368 22.7629 166.416 37.3833C166.161 37.4499 164.973 38.1079 163.064 38.1815C161.69 33.8592 155.82 30.0704 154.284 31.5302C150.439 35.1829 155.216 42.323 158.578 42.8833C156.558 55.3202 143.931 52.2397 146.281 36.6583C150.394 29.0222 153.521 17.6673 152.963 10.8125C152.765 8.38539 150.971 5.13378 146.913 5.29452C139.108 5.60359 138.259 23.1511 139.174 35.6052C139.129 35.2986 138.695 37.1184 135.496 38.0234C134.74 33.8238 127.978 29.6086 126.386 31.6353C123.407 35.4283 128.57 42.1909 131.016 42.6629C128.997 55.0996 116.369 52.0191 118.72 36.4377C122.832 28.8016 125.96 17.4467 125.401 10.5918C125.204 8.16478 123.41 4.91318 119.351 5.07392C111.546 5.38321 110.698 22.9305 111.613 35.3846C111.567 35.0733 111.122 36.9528 107.793 37.8432C107.682 32.3949 100.896 29.8968 99.2654 31.6353C96.3601 34.7337 99.9307 41.0919 103.234 42.6629C101.215 55.0996 88.5874 52.0191 90.9382 36.4377C95.0502 28.8016 98.1777 17.4467 97.6194 10.5918C97.4219 8.16478 95.6278 4.91318 91.5692 5.07392C83.7643 5.38321 83.1364 23.8127 84.0516 36.2668C81.4809 47.2812 72.8597 61.0363 73.9795 33.4819C74.0902 31.5493 74.211 30.8149 73.2474 30.0915C72.5251 29.5288 70.8831 29.7993 69.9859 29.8219C68.8948 29.8656 68.6212 30.5041 68.3802 31.4688C67.8184 33.9601 67.7178 36.3752 67.6375 39.6705C67.5847 41.2121 67.461 41.9313 66.8677 44.0331C66.2744 46.1349 62.8925 49.9758 61.0403 49.334C58.4713 48.45 59.3136 41.1976 59.7954 36.2145C60.1967 32.2762 58.9123 30.5081 55.6208 29.8649C53.6939 29.4632 52.5231 29.525 50.5166 28.8925C48.619 28.2943 48.1895 24.7046 44.1426 25.901C41.9284 26.5557 43.3516 31.2464 42.8197 34.723C40.2039 51.8238 34.7612 52.2934 32.2361 43.9861C43.6081 16.1351 35.5259 5.15507 30.7954 5.15507C25.8677 5.15507 20.2349 8.54901 22.6201 30.266C21.4603 29.9277 21.1038 29.7454 19.8343 29.7454C12.654 29.7454 7.76172 35.55 7.76172 42.7104C7.76172 49.8707 12.654 55.6753 19.8343 55.6753C24.0732 55.6753 27.0488 53.7478 29.3029 50.7656C30.7733 52.8716 32.564 55.7079 35.8387 55.5802C45.5993 55.2002 48.4383 35.1782 48.7731 34.0615C49.8166 34.2222 50.8039 34.5266 51.7673 34.6873C53.3729 34.9286 53.4893 35.564 53.4531 37.1789C53.0279 50.7959 55.5405 55.5638 61.2403 55.5638C64.4161 55.5638 67.2469 52.4439 69.1968 50.2126C70.6532 53.2186 72.9739 55.472 76.0871 55.5638C83.6315 55.7512 86.5197 43.7271 86.2565 45.3095C86.0499 46.5511 88.704 55.496 96.4705 55.5286C106.091 55.5687 107.879 44.9891 108.093 43.217C108.119 42.8642 108.131 42.9013 108.093 43.217C108.09 43.2498 108.088 43.2848 108.085 43.3245C111.139 42.7565 112.715 41.1189 112.715 41.1189C112.715 41.1189 115.168 55.6931 124.252 55.5286C133.685 55.3576 135.464 45.7946 135.698 43.9296C135.729 43.487 135.747 43.5389 135.698 43.9296C135.697 43.948 135.696 43.9641 135.695 43.9843C139.323 42.6643 140.277 41.3395 140.277 41.3395C140.277 41.3395 142.226 55.6239 151.814 55.7489C160.358 55.8605 163.524 47.1115 163.543 43.4493C164.984 43.4646 167.649 42.5946 167.587 42.5448C167.587 42.5448 170.716 55.0339 179.456 55.6753C183.559 55.9764 186.637 53.3667 188.392 52.1759C192.516 55.5155 206.247 59.7807 214.917 45.0811C216.14 42.9716 213.509 40.4793 213.048 40.1541ZM19.4878 50.8261C15.2985 50.8261 12.6123 46.9526 12.6123 42.776C12.6123 38.5994 15.0779 34.7259 19.2672 34.7259C21.1526 34.7259 22.2008 34.9334 23.6692 36.2105C23.9357 37.2594 24.69 39.6796 25.0574 40.7786C25.5491 42.249 26.1342 43.5008 26.7244 44.8632C25.8812 48.3576 23.1183 50.8261 19.4878 50.8261ZM29.6962 36.3333C29.5222 36.0557 29.5583 36.2262 29.3634 35.9639C28.5956 33.8752 27.1157 29.2124 26.9443 23.9162C26.7506 17.9256 27.7491 10.9036 30.6928 10.9036C32.6873 10.9036 34.8071 25.1349 29.6962 36.3333ZM88.6818 30.0915C88.2091 26.5364 88.1845 10.6878 91.9893 11.1242C94.0898 11.9751 90.6573 26.9304 88.6818 30.0915ZM116.464 30.0915C115.991 26.5364 115.966 10.6878 119.771 11.1242C121.872 11.9751 118.439 26.9304 116.464 30.0915ZM144.025 30.3121C143.552 26.757 143.528 10.9085 147.332 11.3448C149.433 12.1957 146 27.151 144.025 30.3121ZM174.453 10.1965C177.932 9.83604 177.788 25.0265 170.806 34.6164C169.906 31.1504 168.525 11.3869 174.453 10.1965ZM189.074 42.8833C187.956 37.2397 190.843 33.5329 193.819 33.1265C194.859 32.9602 196.367 33.6342 196.667 34.894C197.162 37.2683 196.596 40.7899 189.935 45.2585C189.945 45.2966 189.323 44.14 189.074 42.8833Z"/></g></svg>

<svg xmlns="http://www.w3.org/2000/svg" fill="none" aria-hidden="true" viewBox="0 0 223 61"><path fill="#444" d="M71.153 25.46a4.3 4.3 0 1 0-.001-8.6 4.3 4.3 0 0 0 0 8.6Zm141.895 14.694c-.654-.46-1.159-.536-1.578.357-7.222 15.64-19.391 7.836-18.181 8.523 2.699-1.235 9.798-6.929 8.725-14.79-.652-4.805-4.775-6.936-9.152-6.172-7.64 1.331-10.451 9.572-9.02 16.868.25 1.253.698 2.286 1.144 3.298-8.633 7.021-12.062-6.285-12.451-7.875-.015-.085 6.667-5.654 8.525-18.926 1.948-13.91-2.489-16.442-7.027-16.363-8.396.146-10.665 17.689-7.617 32.31-.255.066-1.443.724-3.352.797-1.374-4.322-7.244-8.11-8.78-6.65-3.845 3.652.932 10.792 4.294 11.352-2.02 12.437-14.647 9.357-12.297-6.225 4.113-7.636 7.24-18.99 6.682-25.846-.198-2.427-1.992-5.678-6.05-5.517-7.805.309-8.654 17.856-7.739 30.31-.045-.306-.479 1.513-3.678 2.418-.756-4.2-7.518-8.414-9.11-6.388-2.979 3.793 2.184 10.556 4.63 11.028-2.019 12.437-14.647 9.356-12.296-6.225 4.112-7.636 7.24-18.991 6.681-25.846-.197-2.427-1.991-5.679-6.05-5.518-7.805.31-8.653 17.856-7.738 30.31-.046-.31-.491 1.569-3.82 2.46-.111-5.45-6.897-7.947-8.528-6.209-2.905 3.099.666 9.457 3.969 11.028-2.019 12.437-14.647 9.356-12.296-6.225 4.112-7.636 7.24-18.991 6.681-25.846-.197-2.427-1.991-5.679-6.05-5.518-7.805.31-8.433 18.739-7.517 31.193-2.571 11.014-11.192 24.77-10.073-2.785.111-1.933.232-2.667-.732-3.39-.722-.563-2.364-.293-3.261-.27-1.091.044-1.365.682-1.606 1.647-.562 2.491-.662 4.906-.742 8.201-.053 1.542-.177 2.261-.77 4.363-.594 2.102-3.975 5.943-5.828 5.301-2.569-.884-1.726-8.136-1.245-13.12.402-3.938-.883-5.706-4.174-6.35-1.927-.4-3.098-.339-5.104-.972-1.898-.598-2.328-4.187-6.374-2.991-2.215.655-.791 5.345-1.323 8.822-2.616 17.1-8.059 17.57-10.584 9.263 11.372-27.85 3.29-38.83-1.44-38.83-4.928 0-10.561 3.393-8.176 25.11-1.16-.338-1.516-.52-2.786-.52-7.18 0-12.072 5.804-12.072 12.964s4.892 12.965 12.072 12.965c4.24 0 7.215-1.927 9.469-4.91 1.47 2.107 3.261 4.943 6.536 4.815 9.76-.38 12.6-20.402 12.934-21.518 1.044.16 2.03.465 2.994.625 1.606.242 1.722.877 1.686 2.492-.425 13.617 2.087 18.385 7.787 18.385 3.176 0 6.007-3.12 7.957-5.351 1.456 3.006 3.777 5.259 6.89 5.35 7.544.188 10.433-11.836 10.17-10.254-.207 1.242 2.447 10.187 10.213 10.22 9.621.04 11.409-10.54 11.623-12.312.026-.353.038-.316 0 0l-.008.108c3.054-.569 4.63-2.206 4.63-2.206s2.453 14.574 11.537 14.41c9.433-.171 11.212-9.734 11.446-11.6.031-.442.049-.39 0 0l-.003.055c3.628-1.32 4.582-2.645 4.582-2.645s1.949 14.285 11.537 14.41c8.544.111 11.71-8.638 11.729-12.3 1.441.016 4.106-.854 4.044-.904 0 0 3.129 12.489 11.869 13.13 4.103.301 7.181-2.308 8.936-3.5 4.124 3.34 17.855 7.606 26.525-7.094 1.223-2.11-1.408-4.602-1.869-4.927ZM19.488 50.826c-4.19 0-6.876-3.873-6.876-8.05 0-4.177 2.466-8.05 6.655-8.05 1.886 0 2.934.207 4.402 1.485.267 1.048 1.021 3.469 1.388 4.568.492 1.47 1.077 2.722 1.667 4.084-.843 3.495-3.606 5.963-7.236 5.963Zm10.208-14.493c-.174-.277-.138-.107-.333-.37-.767-2.088-2.247-6.75-2.419-12.047-.193-5.99.805-13.012 3.749-13.012 1.994 0 4.114 14.23-.997 25.43Zm58.986-6.241c-.473-3.556-.498-19.404 3.307-18.968 2.1.851-1.332 15.806-3.307 18.968Zm27.782 0c-.473-3.556-.498-19.404 3.307-18.968 2.101.851-1.332 15.806-3.307 18.968Zm27.561.22c-.473-3.555-.497-19.404 3.307-18.967 2.101.85-1.332 15.806-3.307 18.967Zm30.428-20.116c3.479-.36 3.335 14.83-3.647 24.42-.9-3.466-2.281-23.23 3.647-24.42Zm14.621 32.687c-1.118-5.643 1.769-9.35 4.745-9.757 1.04-.166 2.548.508 2.848 1.768.495 2.374-.071 5.896-6.732 10.364.01.039-.612-1.118-.861-2.375Z"/></svg>
